X: 20152
T: Joanie's
R: mazurka
M: 3/4
K: Gmajor
|:D>G|B>d B>G D>G|B>d B>G D>F|A>c A>F (3DEF|G>F G>E D>G|
B2 B>G D>G|(3Bcd B>G D>F|A>c A>F D>F|G2 G2:|
|:g>f|e>E [C3/2c3/2]E/ e>^c|d>D [G,3/2G3/2]D/ [B,3/2B3/2]D/|[C3/2c3/2]D/ [A,3/2A3/2]D/ F>A|B>^A B>c d>g|
(3efe [C3/2c3/2]E/ e>^c|d>D [G,3/2G3/2]D/ [B,3/2B3/2]D/|^c>d e>=c (3DEF|G2 G2:|

